x-pack/solutions/security/plugins/security_solution/public/common/utils/logo_endpoint/64_color.svg

<svg xmlns="http://www.w3.org/2000/svg" width="64" height="64" viewBox="0 0 64 64">
  <g fill="none" fill-rule="evenodd">
    <path fill="#F04E98" d="M29,32.0001 L15.935,9.4321 C13.48,5.1941 7,6.9351 7,11.8321 L7,52.1681 C7,57.0651 13.48,58.8061 15.935,54.5671 L29,32.0001 Z"/>
    <path fill="#FA744E" d="M34.7773,32.0001 L33.3273,34.5051 L20.2613,57.0731 C19.8473,57.7871 19.3533,58.4271 18.8023,59.0001 L34.9273,59.0001 C38.7073,59.0001 42.2213,57.0601 44.2363,53.8611 L58.0003,32.0001 L34.7773,32.0001 Z"/>
    <path fill="#343741" d="M44.2363,10.1392 C42.2213,6.9402 38.7073,5.0002 34.9273,5.0002 L18.8023,5.0002 C19.3533,5.5732 19.8473,6.2122 20.2613,6.9272 L33.3273,29.4942 L34.7773,32.0002 L58.0003,32.0002 L44.2363,10.1392 Z"/>
  </g>
</svg>

<svg xmlns="http://www.w3.org/2000/svg" width="64" height="64"><g fill="none" fill-rule="evenodd"><path fill="#F04E98" d="M29 32 15.935 9.432C13.48 5.194 7 6.935 7 11.832v40.336c0 4.897 6.48 6.638 8.935 2.4z"/><path fill="#FA744E" d="m34.777 32-1.45 2.505-13.066 22.568A10 10 0 0 1 18.802 59h16.125a11 11 0 0 0 9.31-5.139L58 32.001z"/><path fill="#343741" d="M44.236 10.14A11 11 0 0 0 34.927 5H18.802a10 10 0 0 1 1.46 1.927l13.065 22.567L34.777 32H58z"/></g></svg>
